static/images/mobile/copyright/wikipedia-tagline-hi.svg

<?xml version="1.0" encoding="UTF-8"?>
<svg xmlns="http://www.w3.org/2000/svg" width="106" height="18" viewBox="0 0 106 18">
	<title>
		hi-tagline
	</title>
	<g id="Page-1" fill="none" fill-rule="evenodd" stroke="none" stroke-width="1">
		<path id="hi-tagline" fill="#000" fill-rule="nonzero" d="M95.2763,5.2854 L94.40668,4.40942 L96.64105,4.40942 C96.37445,4.69719 96.19037,4.98918 96.0888,5.2854 L95.2763,5.2854 Z M99.24359,7.8562 C98.92197,8.11857 98.48398,8.24976 97.92963,8.24975 C97.45566,8.20325 97.07269,7.98527 96.7807,7.59594 C96.50563,7.23625 96.3681,6.81096 96.3681,6.32006 C96.3681,5.79533 96.51621,5.33618 96.81244,4.94262 C97.13405,4.51099 97.54876,4.29094 98.05658,4.28247 C98.73789,4.27447 99.34515,4.75432 99.87836,5.72338 C100.08994,6.11271 100.20631,6.59937 100.22748,7.18334 C100.22747,7.22994 100.21948,7.39282 100.20208,7.67211 C100.12168,8.86125 99.59693,9.84936 98.62786,10.63647 L100.32903,13.28979 L100.04973,13.51196 L98.18987,10.82055 C97.91903,10.95174 97.61435,10.98136 97.27581,10.90945 C96.57756,10.75711 96.22844,10.43761 96.22844,9.95095 C96.22844,9.43045 96.44426,9.12365 96.8759,9.03054 C97.23983,9.03055 97.39853,9.02654 97.35198,9.01784 C97.53394,9.04324 97.71802,9.14903 97.90422,9.33522 C97.94232,9.37332 98.00473,9.46006 98.09148,9.59547 C98.17818,9.73089 98.2216,9.81553 98.22161,9.84938 C98.90292,9.532 99.24358,8.86761 99.24358,7.85622 L99.24359,7.8562 Z M97.92963,4.76489 C97.48529,4.77289 97.26312,5.14152 97.26312,5.86938 C97.26312,6.191 97.32452,6.5105 97.4472,6.82788 C97.67148,7.41187 98.05234,7.70385 98.58978,7.70385 C98.93678,7.63195 99.11029,7.3103 99.11029,6.73901 C99.11029,6.24813 99.03199,5.82284 98.87543,5.46313 C98.66807,4.98918 98.3528,4.75643 97.92963,4.76489 L97.92963,4.76489 Z M100.12591,5.2854 C99.95241,4.94686 99.71966,4.65487 99.42767,4.40942 L105.04535,4.40942 L105.92767,5.2854 L103.73773,5.2854 L103.73773,13.51196 L102.69672,12.44555 L102.69672,5.2854 L100.12591,5.2854 Z M92.04381,5.29502 L91.07693,5.29502 L90.18141,4.405 L94.43833,4.405 L95.32735,5.29502 L93.10804,5.29502 L93.10804,13.65355 L92.04381,12.58294 L92.04381,5.29502 M92.7771,4.405 C92.43533,3.88045 92.16062,3.48058 91.95296,3.2054 C91.09207,2.0574 90.59456,1.41031 90.46045,1.26411 C89.69473,0.42139 88.99389,0 88.35796,0 C87.89939,0 87.36511,0.0903 86.75512,0.27088 L87.93615,1.46403 C88.34714,1.40383 88.64565,1.37373 88.83167,1.37373 C89.433,1.37375 90.11653,1.74351 90.88225,2.48304 C91.49657,3.07641 91.99839,3.71706 92.38775,4.405 L92.7771,4.405 M79.40276,5.29504 L78.51374,4.40502 L90.64205,4.40502 L91.53107,5.29504 L85.52856,5.29504 L85.52856,7.77809 C85.65834,7.66201 85.75351,7.58246 85.81409,7.53946 C85.96117,7.43197 86.10609,7.35889 86.24886,7.32018 C86.54303,7.23858 86.81774,7.19764 87.07299,7.19764 C87.73488,7.19764 88.28213,7.42768 88.71476,7.88773 C89.14736,8.3435 89.36367,8.90461 89.36368,9.57105 C89.36367,10.10421 89.17331,10.60727 88.79263,11.08023 C88.50709,11.44569 88.05934,11.75098 87.44936,11.99605 L86.97565,11.08023 C87.58995,10.79645 88.00094,10.57287 88.2086,10.40948 C88.66716,10.05262 88.89645,9.66134 88.89646,9.23568 C88.89645,8.85302 88.71692,8.50689 88.35786,8.19731 C88.12856,8.00384 87.77165,7.93074 87.28713,7.97803 C87.05784,7.99953 86.77664,8.15002 86.44354,8.42949 C86.11475,8.70467 85.80975,9.04219 85.52856,9.44205 L85.52856,13.65357 L84.45135,12.57006 L84.45135,10.69326 C84.26533,10.89964 83.99062,11.07807 83.62723,11.22856 C83.26383,11.37475 82.93721,11.44785 82.64736,11.44785 C82.02007,11.44785 81.48363,11.23501 81.03804,10.80935 C80.59677,10.38369 80.37614,9.85913 80.37614,9.23568 C80.37614,8.59934 80.58596,8.07478 81.00559,7.66201 C81.42523,7.24494 81.95518,7.03641 82.59545,7.0364 C83.40875,7.03641 84.02739,7.38038 84.45135,8.06832 L84.45135,8.46174 C84.07065,8.12637 83.63371,7.95868 83.14054,7.95867 C82.50892,7.95868 82.02007,8.08123 81.67398,8.32629 C81.1981,8.66167 80.93854,9.10884 80.89528,9.66779 C80.86928,10.02037 80.96668,10.30414 81.18729,10.51912 C81.36899,10.69111 81.6199,10.7771 81.94004,10.7771 C82.3986,10.7771 82.92423,10.54492 83.51691,10.08056 C84.13987,9.5904 84.45135,9.12174 84.45135,8.67457 L84.45135,5.29504 L79.40276,5.29504 M72.48518,9.20988 C72.18235,8.83151 72.03094,8.51119 72.03094,8.2489 C72.03094,7.79745 72.20614,7.54807 72.55656,7.50076 C72.55656,7.50077 73.92578,7.50077 76.66422,7.50076 L76.66422,5.29504 L71.05107,5.29504 L70.16205,4.40502 L79.0198,4.40502 L79.90882,5.29504 L77.70249,5.29504 L77.70249,13.65357 L76.66422,12.63455 L76.66422,8.51333 L73.93227,8.51333 L73.93227,9.95802 C73.90627,10.2031 73.83277,10.35359 73.71164,10.40948 C73.52129,10.39228 73.36771,10.31058 73.25091,10.1644 L72.48518,9.20988 M68.66954,5.29504 L67.70265,5.29504 L66.80714,4.40502 L71.06405,4.40502 L71.95307,5.29504 L69.73377,5.29504 L69.73377,13.65357 L68.66954,12.58296 L68.66954,5.29504 M65.29496,5.29504 L58.0595,5.29504 L57.164,4.40502 L64.39945,4.40502 L65.29496,5.29504 M64.38647,7.84259 L61.18081,7.84259 C61.37981,7.91569 61.71075,8.13067 62.17365,8.48754 C62.69711,8.88741 63.01292,9.20558 63.12108,9.44205 C63.20328,9.61835 63.24437,9.82043 63.24437,10.04831 C63.24437,10.48688 63.07132,10.88674 62.72524,11.24791 C62.37914,11.60908 61.98546,11.82192 61.5442,11.88641 L62.21908,13.50523 L61.82324,13.91154 L61.03804,12.04119 C60.86932,12.09279 60.67465,12.11859 60.45402,12.11859 C60.07332,12.11859 59.74886,12.0111 59.48064,11.79611 C59.19079,11.56393 59.04586,11.26296 59.04586,10.89318 C59.04586,10.25253 59.35518,9.92577 59.97382,9.91286 C60.28097,9.90386 60.5427,10.00956 60.75901,10.22889 C60.91907,10.39227 61.02506,10.57931 61.07698,10.78999 C61.32789,10.78999 61.54636,10.69109 61.73239,10.49331 C61.92273,10.29553 62.01791,10.07195 62.01791,9.82256 C62.01791,9.39261 61.89029,9.09808 61.63505,8.93899 L59.13671,7.36532 L59.13671,6.84936 L64.38647,6.84936 L64.38647,7.84258 M64.38647,5.29503 L63.67915,5.29503 L62.79662,4.40501 L66.8913,4.40501 L67.78032,5.29503 L65.59995,5.29503 L65.59995,13.65356 L64.38647,12.4475 L64.38647,5.29503 M44.24371,8.41663 L44.24371,13.6407 L43.1665,12.56364 L43.1665,8.33277 L41.03805,8.33277 C40.5016,8.33278 40.07764,8.46607 39.76617,8.73265 C39.42873,9.01643 39.26001,9.42059 39.26001,9.94515 C39.26001,10.6546 39.51957,11.33178 40.03871,11.97673 C40.03871,11.97673 40.52756,12.53569 41.50527,13.6536 L41.07698,13.6536 C40.32423,13.12045 39.68397,12.52494 39.15618,11.86709 C38.48996,11.03726 38.15684,10.26763 38.15685,9.55818 C38.15684,9.12392 38.34287,8.71545 38.71492,8.33277 L37.72207,8.33277 L36.65784,7.26217 L43.1665,7.26217 L43.1665,5.29507 L36.63837,5.29507 L35.74287,4.40505 L50.22026,4.40505 L51.10928,5.29507 L44.24371,5.29507 L44.24371,7.38471 C44.52057,7.37181 44.82773,7.36751 45.16518,7.37181 C45.51991,7.37581 45.95901,7.39761 46.48248,7.43631 C47.17465,7.5911 47.70893,7.86414 48.08531,8.25539 C48.59579,8.78855 48.85103,9.39911 48.85104,10.08705 C48.85103,10.6503 48.64986,11.28665 48.24754,11.99609 C48.05286,12.33577 47.69811,12.88182 47.18332,13.63426 L46.2294,12.71198 C46.55385,12.4712 46.9843,12.11003 47.52075,11.62847 C48.05286,11.03513 48.31891,10.46542 48.31892,9.91936 C48.31891,9.4679 48.13938,9.08738 47.78032,8.77781 C47.43422,8.48113 46.86966,8.31344 46.08664,8.27474 C45.72756,8.25764 45.11325,8.30484 44.24371,8.41664 M34.17897,15.32397 L33.41325,14.53069 C33.89345,14.16092 34.41042,13.98892 34.96416,14.01473 C35.43139,14.03623 35.82507,14.2598 36.1452,14.68547 C36.43937,15.08104 36.58646,15.5196 36.58646,16.00117 C36.58646,16.57732 36.34636,17.01803 35.86616,17.3233 C35.45951,17.58559 34.95119,17.71672 34.3412,17.71672 C33.47598,17.71672 32.55019,17.2975 31.56383,16.45908 C30.77648,15.78833 30.09295,14.99719 29.51324,14.08567 L29.92206,14.08567 C30.29844,14.72632 30.94952,15.35407 31.87531,15.96892 C32.84869,16.61386 33.68796,16.93633 34.39311,16.93634 C35.55684,16.93633 36.13871,16.60096 36.13871,15.93023 C36.13871,15.70663 36.02407,15.4895 35.79478,15.27883 C35.5655,15.07244 35.33838,14.96925 35.11341,14.96925 C34.7457,14.96925 34.43421,15.08749 34.17897,15.32397 M30.84991,11.48653 C30.81531,11.51233 30.68335,11.52523 30.45407,11.52523 C30.35457,11.52523 29.86788,11.01142 28.994,9.98381 C28.9205,9.90221 28.78851,9.75593 28.59816,9.54524 C28.46405,9.39045 28.397,9.23782 28.397,9.08732 C28.397,8.79495 28.58518,8.64877 28.96156,8.64876 C29.19084,8.64877 29.51097,8.65276 29.92196,8.66166 L29.92196,5.29503 L27.43011,5.29503 L26.54109,4.40501 L36.26839,4.40501 L37.15741,5.29503 L34.91864,5.29503 L34.91864,13.65356 L33.73112,12.4733 L33.73112,9.77097 L30.96672,9.77097 C30.96672,10.26114 30.97072,10.6954 30.97972,11.07377 C30.98372,11.28015 30.94082,11.41774 30.84993,11.48653 M33.73114,5.29503 L30.96674,5.29503 L30.96674,8.66166 L33.73114,8.66166 L33.73114,5.29503 M8.70211,5.29509 L7.81309,4.40507 L19.9414,4.40507 L20.83042,5.29509 L14.82791,5.29509 L14.82791,7.77814 C14.95769,7.66206 15.05286,7.58251 15.11344,7.53951 C15.26052,7.43202 15.40544,7.35894 15.54821,7.32023 C15.84238,7.23863 16.11709,7.19769 16.37234,7.19769 C17.03423,7.19769 17.58149,7.42773 18.01411,7.88778 C18.44671,8.34355 18.66302,8.90466 18.66303,9.5711 C18.66302,10.10426 18.47267,10.60732 18.09198,11.08028 C17.80644,11.44574 17.35869,11.75103 16.74871,11.9961 L16.275,11.08028 C16.88931,10.7965 17.30029,10.57292 17.50795,10.40953 C17.96651,10.05267 18.19579,9.66139 18.1958,9.23573 C18.19579,8.85307 18.01626,8.50694 17.6572,8.19736 C17.42791,8.00389 17.071,7.93079 16.58648,7.97808 C16.35719,7.99958 16.07599,8.15007 15.74289,8.42954 C15.4141,8.70472 15.1091,9.04224 14.82791,9.4421 L14.82791,13.65362 L13.75071,12.57011 L13.75071,10.69331 C13.56468,10.89969 13.28997,11.07812 12.92658,11.22861 C12.56318,11.3748 12.23656,11.4479 11.94671,11.4479 C11.31942,11.4479 10.78298,11.23506 10.33739,10.8094 C9.89612,10.38374 9.67549,9.85918 9.67549,9.23573 C9.67549,8.59939 9.88531,8.07483 10.30494,7.66206 C10.72458,7.24499 11.25453,7.03646 11.8948,7.03645 C12.7081,7.03646 13.32674,7.38043 13.75071,8.06837 L13.75071,8.46179 C13.37,8.12642 12.93306,7.95873 12.43989,7.95872 C11.80827,7.95873 11.31942,8.08128 10.97333,8.32634 C10.49745,8.66172 10.23789,9.10889 10.19463,9.66784 C10.16863,10.02042 10.26603,10.30419 10.48664,10.51917 C10.66834,10.69116 10.91925,10.77715 11.23939,10.77715 C11.69795,10.77715 12.22358,10.54497 12.81626,10.08061 C13.43922,9.59045 13.7507,9.12179 13.75071,8.67462 L13.75071,5.29509 L8.70211,5.29509 M5.00966,10.07416 C5.06586,10.03116 5.27571,9.84198 5.63911,9.50661 C5.82946,9.29592 5.92463,8.83371 5.92464,8.11997 L5.92464,5.29509 L2.90716,5.29509 L2.90716,9.49371 C2.90716,10.09996 3.08886,10.53207 3.45225,10.79005 L6.80068,13.15055 C7.06889,13.33974 7.33279,13.53323 7.59236,13.73101 C7.86057,13.98898 7.99468,14.27492 7.99469,14.58879 C7.99468,14.83816 7.85625,15.11549 7.57938,15.42077 C7.45824,15.59706 7.28736,15.73465 7.06674,15.83354 L6.41133,15.21439 C6.61898,15.16709 6.80284,15.05315 6.96291,14.87257 C7.12297,14.69628 7.20084,14.50495 7.19652,14.29856 C7.19252,14.19107 7.13382,14.07283 7.02131,13.94384 C6.99531,13.91374 6.86773,13.817 6.63845,13.65362 L3.32247,11.28666 C3.17105,11.18776 2.89202,10.99428 2.48537,10.70621 C2.26473,10.54282 2.10899,10.34933 2.01814,10.12575 C1.90999,9.86348 1.85591,9.5109 1.85591,9.06803 L1.85591,5.29509 L0.89551,5.29509 L0,4.40507 L8.33213,4.40507 L9.22115,5.28864 L7.00184,5.29464 L7.00184,8.33234 C6.99784,8.78381 6.97154,9.09339 6.92394,9.26106 C6.84174,9.55344 6.65787,9.82002 6.37235,10.0608 L5.34057,10.93148 L4.7241,10.31233 C4.7717,10.26933 4.86686,10.1898 5.00962,10.0737"/>
	</g>
</svg>

<svg xmlns="http://www.w3.org/2000/svg" width="106" height="18"><path fill="#000" fill-rule="nonzero" d="m95.276 5.285-.87-.876h2.235c-.267.288-.45.58-.552.876h-.813zm3.968 2.571c-.322.263-.76.394-1.314.394a1.574 1.574 0 0 1-1.15-.654 2.04 2.04 0 0 1-.412-1.276c0-.525.148-.984.444-1.377.322-.432.737-.652 1.245-.66.68-.009 1.288.471 1.821 1.44.212.39.328.876.35 1.46 0 .047-.009.21-.026.49-.08 1.188-.605 2.176-1.574 2.963l1.701 2.654-.28.222-1.86-2.691c-.27.13-.575.16-.913.088-.698-.152-1.048-.471-1.048-.958 0-.52.216-.827.648-.92.364 0 .523-.004.476-.013.182.025.366.131.552.317.038.038.1.125.187.26.087.136.13.22.13.254.682-.317 1.023-.981 1.023-1.993zM97.93 4.765c-.445.008-.667.377-.667 1.104 0 .322.062.642.184.959.224.584.605.876 1.143.876.347-.072.52-.394.52-.965 0-.49-.078-.916-.235-1.276-.207-.474-.522-.707-.945-.698zm2.196.52a2.804 2.804 0 0 0-.698-.876h5.617l.883.876h-2.19v8.227l-1.041-1.066v-7.16h-2.571zm-8.082.01h-.967l-.896-.89h4.257l.89.89h-2.22v8.359l-1.064-1.071V5.295m.733-.89a22.544 22.544 0 0 0-.824-1.2c-.86-1.148-1.358-1.795-1.493-1.94C89.695.42 88.994 0 88.358 0c-.459 0-.993.09-1.603.27l1.181 1.194c.411-.06.71-.09.896-.09.601 0 1.285.37 2.05 1.109a8.48 8.48 0 0 1 1.506 1.922h.39m-13.375.89-.89-.89h12.129l.89.89h-6.003v2.483c.13-.116.225-.196.285-.239.147-.107.292-.18.435-.219.294-.081.569-.122.824-.122.662 0 1.21.23 1.642.69.432.456.649 1.017.649 1.683 0 .533-.19 1.036-.571 1.51-.286.365-.734.67-1.344.915l-.473-.916c.614-.284 1.025-.507 1.233-.67.458-.357.687-.749.687-1.174 0-.383-.18-.73-.538-1.039-.23-.193-.586-.266-1.07-.219-.23.022-.511.172-.844.451a5.238 5.238 0 0 0-.915 1.013v4.212L84.45 12.57v-1.877c-.186.207-.46.385-.824.536-.363.146-.69.219-.98.219a2.246 2.246 0 0 1-1.609-.639 2.1 2.1 0 0 1-.662-1.573c0-.637.21-1.161.63-1.574.42-.417.95-.626 1.59-.626.813 0 1.431.344 1.855 1.032v.394a1.926 1.926 0 0 0-1.31-.503c-.632 0-1.12.122-1.467.367-.476.336-.735.783-.779 1.342-.026.352.072.636.292.851.182.172.433.258.753.258.459 0 .984-.232 1.577-.696.623-.49.934-.96.934-1.406v-3.38h-5.048M72.485 9.21c-.303-.378-.454-.699-.454-.961 0-.452.175-.7.526-.748h4.107V5.295h-5.613l-.889-.89h8.858l.889.89h-2.207v8.359l-1.038-1.02v-4.12h-2.732v1.444c-.026.245-.1.396-.22.451a.64.64 0 0 1-.461-.245l-.766-.954M68.67 5.295h-.967l-.896-.89h4.257l.89.89h-2.22v8.359l-1.064-1.071V5.295m-3.375 0h-7.236l-.895-.89h7.235l.896.89m-.909 2.548h-3.205c.199.073.53.288.993.645.523.4.839.718.947.954.082.176.123.378.123.606 0 .439-.173.839-.519 1.2-.346.361-.74.574-1.18.638l.674 1.62-.396.406-.785-1.87a2 2 0 0 1-.584.077c-.38 0-.705-.108-.973-.323a1.104 1.104 0 0 1-.435-.903c0-.64.31-.967.928-.98.307-.01.569.097.785.316.16.163.266.35.318.561.25 0 .47-.099.655-.297a.943.943 0 0 0 .286-.67c0-.43-.128-.725-.383-.884l-2.498-1.574V6.85h5.25v.994m0-2.548h-.708l-.882-.89h4.094l.89.89H65.6v8.359l-1.214-1.207V5.295M44.244 8.417v5.224l-1.078-1.077V8.333h-2.128c-.536 0-.96.133-1.272.4-.337.283-.506.688-.506 1.212 0 .71.26 1.387.779 2.032l1.466 1.677h-.428a9.421 9.421 0 0 1-1.92-1.787c-.667-.83-1-1.6-1-2.309 0-.434.186-.843.558-1.225h-.993l-1.064-1.07h6.508V5.294h-6.528l-.895-.89H50.22l.89.89h-6.866v2.09c.277-.013.584-.017.921-.013.355.004.794.026 1.317.064.693.155 1.227.428 1.603.82.51.533.766 1.143.766 1.831 0 .563-.201 1.2-.603 1.91-.195.339-.55.885-1.065 1.637l-.954-.922c.325-.24.755-.602 1.292-1.084.532-.593.798-1.163.798-1.709 0-.451-.18-.832-.539-1.141-.346-.297-.91-.465-1.693-.503-.36-.017-.974.03-1.843.142m-10.065 6.907-.766-.793c.48-.37.997-.542 1.551-.516.467.021.861.245 1.181.67.294.396.441.835.441 1.316 0 .576-.24 1.017-.72 1.322-.406.263-.915.394-1.525.394-.865 0-1.79-.42-2.777-1.258a10.484 10.484 0 0 1-2.05-2.373h.408c.376.64 1.028 1.268 1.953 1.883.974.645 1.813.967 2.518.967 1.164 0 1.746-.335 1.746-1.006 0-.223-.115-.44-.344-.651-.23-.207-.457-.31-.682-.31-.367 0-.679.118-.934.355m-3.33-3.837c-.034.025-.166.038-.395.038-.1 0-.586-.514-1.46-1.541l-.396-.439c-.134-.155-.201-.307-.201-.458 0-.292.188-.438.565-.438.229 0 .549.004.96.013V5.295H27.43l-.889-.89h9.727l.89.89h-2.24v8.359l-1.187-1.18V9.77h-2.764c0 .49.004.924.013 1.303.004.206-.04.344-.13.413m2.881-6.192h-2.764v3.367h2.764V5.295m-25.029 0-.889-.89h12.128l.89.89h-6.003v2.483c.13-.116.225-.195.285-.238.148-.108.292-.181.435-.22.294-.081.57-.122.824-.122.662 0 1.21.23 1.642.69.433.456.649 1.017.649 1.683 0 .533-.19 1.036-.571 1.51-.286.365-.733.67-1.343.915l-.474-.916c.614-.284 1.025-.507 1.233-.67.459-.357.688-.749.688-1.174 0-.383-.18-.73-.539-1.039-.23-.193-.586-.266-1.07-.219-.23.022-.511.172-.844.452a5.238 5.238 0 0 0-.915 1.012v4.212L13.75 12.57v-1.877c-.186.207-.461.385-.824.536-.364.146-.69.219-.98.219a2.246 2.246 0 0 1-1.61-.639 2.1 2.1 0 0 1-.662-1.573c0-.637.21-1.161.63-1.574.42-.417.95-.626 1.59-.626.813 0 1.432.344 1.856 1.032v.394a1.926 1.926 0 0 0-1.311-.503c-.632 0-1.12.122-1.467.367-.476.336-.735.783-.778 1.342-.026.352.071.636.292.851.181.172.432.258.752.258.459 0 .985-.232 1.577-.696.623-.49.935-.96.935-1.406v-3.38H8.702m-3.692 4.78c.056-.044.266-.233.63-.568.19-.211.285-.673.285-1.387V5.295H2.907v4.199c0 .606.182 1.038.545 1.296l3.349 2.36c.268.19.532.383.791.581.269.258.403.544.403.858 0 .25-.139.526-.416.832a1.199 1.199 0 0 1-.512.413l-.656-.62a1.04 1.04 0 0 0 .552-.341.812.812 0 0 0 .234-.574c-.004-.108-.063-.226-.176-.355a3.978 3.978 0 0 0-.383-.29l-3.316-2.367c-.15-.1-.43-.293-.837-.58a1.357 1.357 0 0 1-.467-.581c-.108-.263-.162-.615-.162-1.058V5.295h-.96L0 4.405h8.332l.89.884-2.22.006v3.037c-.004.452-.03.761-.078.93-.082.291-.266.558-.552.799l-1.031.87-.617-.619c.048-.043.143-.122.286-.238"/></svg>
